X: 37936
T: Spaghetti Panic
R: mazurka
M: 3/4
K: Eminor
M:7/8
|:BeB fB gz|gfe f^d Be|edB BA GB|~A3 BA GA|
B2 e fB gz|gfe f^d Be|edB BA GB|AGF G2 E2:|
[M:8/8]|:EFG B2 BcB|[M:7/8] ABc BF df|edc BA GB|[M:8/8] ABG F2 BAG|
EFG B2 BcB|[M:7/8] ABc BF df|edc BA GB|AGF G2 E2:|
K: CMaj
G (3Bcd _ed cA|BGG FG AF|G (3Bcd _ed cA|[M:4/4] BGGF A4|
[M:7/8] G(3Bcd _ed cA|B2 G FG AF|G(3Bcd _ed cA|[M:4/4] BGGF A4||
K: Fmaj
gfgb gf^fg|[M:3/4] bgfd Bd|[M:4/4] gfgb gf^fg|[M:3/4] bg f2 ^f2|
[M:4/4] gfgb gf^fg|[M:3/4] bgfd Bd|[M:4/4] gfgb gf^fg|[M:3/4] bg f2f2||

